src/assets/img/icons/duotone-icons/Design/Select.svg

<?xml version="1.0" encoding="UTF-8"?>
<svg width="24px" height="24px" viewBox="0 0 24 24" version="1.1" xmlns="http://www.w3.org/2000/svg" xmlns:xlink="http://www.w3.org/1999/xlink">
    <!-- Generator: Sketch 52.2 (67145) - http://www.bohemiancoding.com/sketch -->
    <title>Stockholm-icons / Design / Select</title>
    <desc>Created with Sketch.</desc>
    <g id="Stockholm-icons-/-Design-/-Select" stroke="none" stroke-width="1" fill="none" fill-rule="evenodd">
        <polygon id="Bound" points="0 0 24 0 24 24 0 24"></polygon>
        <path d="M18.5,8 C17.1192881,8 16,6.88071187 16,5.5 C16,4.11928813 17.1192881,3 18.5,3 C19.8807119,3 21,4.11928813 21,5.5 C21,6.88071187 19.8807119,8 18.5,8 Z M18.5,21 C17.1192881,21 16,19.8807119 16,18.5 C16,17.1192881 17.1192881,16 18.5,16 C19.8807119,16 21,17.1192881 21,18.5 C21,19.8807119 19.8807119,21 18.5,21 Z M5.5,21 C4.11928813,21 3,19.8807119 3,18.5 C3,17.1192881 4.11928813,16 5.5,16 C6.88071187,16 8,17.1192881 8,18.5 C8,19.8807119 6.88071187,21 5.5,21 Z" id="Combined-Shape" fill="#335EEA" opacity="0.3"></path>
        <path d="M5.5,8 C4.11928813,8 3,6.88071187 3,5.5 C3,4.11928813 4.11928813,3 5.5,3 C6.88071187,3 8,4.11928813 8,5.5 C8,6.88071187 6.88071187,8 5.5,8 Z M11,4 L13,4 C13.5522847,4 14,4.44771525 14,5 C14,5.55228475 13.5522847,6 13,6 L11,6 C10.4477153,6 10,5.55228475 10,5 C10,4.44771525 10.4477153,4 11,4 Z M11,18 L13,18 C13.5522847,18 14,18.4477153 14,19 C14,19.5522847 13.5522847,20 13,20 L11,20 C10.4477153,20 10,19.5522847 10,19 C10,18.4477153 10.4477153,18 11,18 Z M5,10 C5.55228475,10 6,10.4477153 6,11 L6,13 C6,13.5522847 5.55228475,14 5,14 C4.44771525,14 4,13.5522847 4,13 L4,11 C4,10.4477153 4.44771525,10 5,10 Z M19,10 C19.5522847,10 20,10.4477153 20,11 L20,13 C20,13.5522847 19.5522847,14 19,14 C18.4477153,14 18,13.5522847 18,13 L18,11 C18,10.4477153 18.4477153,10 19,10 Z" id="Combined-Shape" fill="#335EEA"></path>
    </g>
</svg>

<svg width="24" height="24" viewBox="0 0 24 24" xmlns="http://www.w3.org/2000/svg"><g fill="none" fill-rule="evenodd"><path d="M0 0h24v24H0z"/><path d="M18.5 8a2.5 2.5 0 110-5 2.5 2.5 0 010 5zm0 13a2.5 2.5 0 110-5 2.5 2.5 0 010 5zm-13 0a2.5 2.5 0 110-5 2.5 2.5 0 010 5z" fill="#335EEA" opacity=".3"/><path d="M5.5 8a2.5 2.5 0 110-5 2.5 2.5 0 010 5zM11 4h2a1 1 0 010 2h-2a1 1 0 010-2zm0 14h2a1 1 0 010 2h-2a1 1 0 010-2zm-6-8a1 1 0 011 1v2a1 1 0 01-2 0v-2a1 1 0 011-1zm14 0a1 1 0 011 1v2a1 1 0 01-2 0v-2a1 1 0 011-1z" fill="#335EEA"/></g></svg>
